svgs/sharp-regular/gamepad-modern.svg

<svg xmlns="http://www.w3.org/2000/svg" viewBox="0 0 640 512"><!--! Font Awesome Pro 6.6.0 by @fontawesome - https://fontawesome.com License - https://fontawesome.com/license (Commercial License) Copyright 2024 Fonticons, Inc. --><path d="M591.7 480L440 480l-16-96-208 0-16 96L48.3 480 0 480l5.4-48L42.8 96 160 32l160 0 160 0L597.2 96l37.5 336 5.4 48-48.3 0zm-423-103.9l6.7-40.1 40.7 0 208 0 40.7 0 6.7 40.1 9.3 55.9 105.7 0L552.3 126.2 467.7 80 320 80 172.3 80 87.7 126.2 53.6 432l105.7 0 9.3-55.9zM232 168l0 32 32 0 24 0 0 48-24 0-32 0 0 32 0 24-48 0 0-24 0-32-32 0-24 0 0-48 24 0 32 0 0-32 0-24 48 0 0 24zm168 72a32 32 0 1 1 0 64 32 32 0 1 1 0-64zm32-64a32 32 0 1 1 64 0 32 32 0 1 1 -64 0z"/></svg>

<svg xmlns="http://www.w3.org/2000/svg" viewBox="0 0 640 512"><!--! Font Awesome Pro 6.4.0 by @fontawesome - https://fontawesome.com License - https://fontawesome.com/license (Commercial License) Copyright 2023 Fonticons, Inc. --><path d="M591.7 480H440l-16-96H216l-16 96H48.3 0l5.4-48L42.8 96 160 32H320 480L597.2 96l37.5 336 5.4 48H591.7zm-423-103.9l6.7-40.1H216 424h40.7l6.7 40.1 9.3 55.9H586.4L552.3 126.2 467.7 80H320 172.3L87.7 126.2 53.6 432H159.3l9.3-55.9zM232 168v32h32 24v48H264 232v32 24H184V280 248H152 128V200h24 32V168 144h48v24zm168 72a32 32 0 1 1 0 64 32 32 0 1 1 0-64zm32-64a32 32 0 1 1 64 0 32 32 0 1 1 -64 0z"/></svg>
